!!!COM: Schubert, Franz
!!!CDT: 1797/01/31/-1828/11/19/
!!!CNT: Austrian
!!!OTL: String Quartet No. 10 in E-flat Major, Op. 125, No. 1
!!!ODT: 1813/11//
!!!PDT: 1840
!!!SCA: D 87
!!!OPS: Op. 125
!!!ONM: No. 1
!!!OMV: Mvmt. 2
!!!OMD: Scherzo (Prestissimo) - Trio
**kern	**dynam	**kern	**dynam	**kern	**dynam	**kern	**dynam
*staff4	*staff4	*staff3	*staff3	*staff2	*staff2	*staff1	*staff1
*Icello	*Icello	*Iviola	*Iviola	*Ivioln	*Ivioln	*Ivioln	*Ivioln
*clefF4	*clefF4	*clefC3	*clefC3	*clefG2	*clefG2	*clefG2	*clefG2
*k[b-e-a-]	*k[b-e-a-]	*k[b-e-a-]	*k[b-e-a-]	*k[b-e-a-]	*k[b-e-a-]	*k[b-e-a-]	*k[b-e-a-]
*M3/4	*M3/4	*M3/4	*M3/4	*M3/4	*M3/4	*M3/4	*M3/4
*MM216	*MM216	*MM216	*MM216	*MM216	*MM216	*MM216	*MM216
.	.	(ddq/	.	(ddq/	.	(ddq/	.
4r	.	4ee-'\)	.	4ee-'\)	.	4ee-'\)	.
=1	=1	=1	=1	=1	=1	=1	=1
(2.G\	.	[2.e-\	.	(2.B-/	.	(2.e-/	.
=2	=2	=2	=2	=2	=2	=2	=2
4A-\)	.	4e-\]	.	4c/)	.	4f/)	.
4r	.	4r	.	4r	.	4r	.
.	.	(ddq/	.	(ddq/	.	(ddq/	.
4r	.	4ee-'\)	.	4ee-'\)	.	4ee-'\)	.
=3	=3	=3	=3	=3	=3	=3	=3
(2.An\	.	(2.c\	.	[2.e-/	.	(2.f/	.
=4	=4	=4	=4	=4	=4	=4	=4
4B-\)	.	4B-/)	.	4e-/]	.	4g/)	.
4r	.	4r	.	4r	.	4r	.
.	.	(ddq/	.	(ddq/	.	(ddq/	.
4r	.	4ee-'\)	p	4ee-'\)	.	4ee-'\)	p
=5	=5	=5	=5	=5	=5	=5	=5
4E-'\	.	4e-'\	.	4e-'/	p	4e-'/	.
4D'\	.	4e-'\	.	4e-'/	.	4f'/	.
4D-'\	.	4e-'\	.	4e-'/	.	4g'/	.
=6	=6	=6	=6	=6	=6	=6	=6
4C'/	.	4e-'\	.	4e-'/	.	4a-'/	.
4BB-'/	.	4e-'\	.	4g'/	.	4b-'\	.
4AA-'/	.	4e-'\	.	4a-'/	.	4cc'\	.
=7	=7	=7	=7	=7	=7	=7	=7
4BB-'/	f	4B-'\ 4f'\	f	4B-'/ 4a-'/	.	4b-'\	f
4B-'\	.	4B-'\ 4f'\	.	4B-'/ 4a-'/	.	4cc'\	.
4B-'\	.	4B-'\ 4f'\	.	4B-'/ 4a-'/	.	4dd'\	.
=8	=8	=8	=8	=8	=8	=8	=8
4E-\	.	4G/ 4e-/	.	4B-/ 4g/	.	4ee-\	.
4r	.	4r	.	4r	.	4r	.
=:|!|:	=:|!|:	=:|!|:	=:|!|:	=:|!|:	=:|!|:	=:|!|:	=:|!|:
.	.	(f#q/	.	(ff#q/	.	(ff#q/	.
4r	.	4g\)	ff	4gg\)	ff	4gg\)	ff
=9	=9	=9	=9	=9	=9	=9	=9
2.Bn\	.	([2.G\ 2.f\	.	[2.G/ [2.g/	.	2.g/	.
=10	=10	=10	=10	=10	=10	=10	=10
4c\	.	4G/]) 4e-/	.	4G/] 4g/]	.	4a-/	.
4r	.	4r	.	4r	.	4r	.
.	.	(f#q/	.	(ff#q/	.	(ff#q/	.
4r	.	4g'\)	.	4gg'\)	.	4gg'\)	.
=11	=11	=11	=11	=11	=11	=11	=11
(2.c\	.	([2.G'/ 2.e-'/	.	[2.G'/ [2.g'/	.	(2.a-'/	.
=12	=12	=12	=12	=12	=12	=12	=12
4d\)	.	4G\]) 4f\	.	4G/] 4g/]	.	4bn\)	.
4r	.	4r	.	4r	.	4r	.
.	.	f#q/	.	(ff#q/	.	(ff#q/	.
4r	.	4g'\	.	4gg'\)	.	4gg'\)	.
=13	=13	=13	=13	=13	=13	=13	=13
2d^\	.	2G^\ 2f^\	.	2G^/ 2g^/	.	2bn^\	.
.	.	(f#q/	.	(ff#q/	.	(ff#q/	.
4r	.	4g'\)	.	4gg'\)	.	4gg'\)	.
=14	=14	=14	=14	=14	=14	=14	=14
2e-^\	.	2Gn^\ 2fn^\	.	2G^/ 2g^/	.	2cc^\	.
.	.	(f#q/	.	(ff#q/	.	(ff#q/	.
4r	.	4g'\)	.	4gg'\)	.	4gg'\)	.
=15	=15	=15	=15	=15	=15	=15	=15
(2.E-\	.	(2.G/	.	(2.g/	.	(2.cc#\	.
=16	=16	=16	=16	=16	=16	=16	=16
4D\)	.	4An/)	.	4f#/)	.	4dd\)	.
4r	.	4r	.	4r	.	4r	.
.	.	(cc#q/	.	(cc#q/	.	(ccc#q/	.
4r	.	4dd'\)	.	4dd'\)	.	4ddd'\)	.
=17	=17	=17	=17	=17	=17	=17	=17
4D'\	.	8f#\	.	8d/ 8an/	.	2dd\	.
.	.	4f#\	.	4d/ 4a/	.	.	.
4F#'\	.	.	.	.	.	.	.
.	.	4f#\	.	4d/ 4a/	.	.	.
.	.	.	.	.	.	(ccc#q/	.
4An'\	.	.	.	.	.	4ddd'\)	.
.	.	(8f#\	.	([8d/ 8a/	.	.	.
=18	=18	=18	=18	=18	=18	=18	=18
4D'\	.	8g\)	.	8d/]) 8b-/	.	2dd\	.
.	.	4g\	.	4d/ 4b-/	.	.	.
4G'\	.	.	.	.	.	.	.
.	.	4g\	.	4d/ 4b-/	.	.	.
.	.	.	.	.	.	(ccc#q/	.
4B-'\	.	.	.	.	.	4ddd'\)	.
.	.	(8g\	.	([8d/ 8b-/	.	.	.
=19	=19	=19	=19	=19	=19	=19	=19
4D'\	.	8f#\)	.	8d/]) 8an/	.	2dd\	.
.	.	4f#\	.	4d/ 4a/	.	.	.
4F#'\	.	.	.	.	.	.	.
.	.	4f#\	.	4d/ 4a/	.	.	.
.	.	.	.	.	.	(ccc#q/	.
4An'\	.	.	.	.	.	4ddd'\)	.
.	.	(8f#\	.	([8d/ 8a/	.	.	.
=20	=20	=20	=20	=20	=20	=20	=20
4D'\	.	8g\)	.	8d/]) 8b-/	.	2dd\	.
.	.	4g\	.	4d/ 4b-/	.	.	.
4G'\	.	.	.	.	.	.	.
.	.	4g\	.	4d/ 4b-/	.	.	.
.	.	.	.	.	.	(ccc#q/	.
4B-'\	.	.	.	.	.	4ddd'\)	.
.	.	8g\	.	8d/ 8b-/	.	.	.
=21	=21	=21	=21	=21	=21	=21	=21
2D\	.	2f#\	.	2d/ 2an/	.	2dd\	.
.	.	.	.	(cc#q/	.	(ccc#q/	.
4r	.	4r	.	4dd\)	.	4ddd'\)	.
=22	=22	=22	=22	=22	=22	=22	=22
4r	.	4r	.	2d/ 2an/	.	2d/	.
4r	.	4r	.	.	.	.	.
(C#q/	.	(c#q/	.	(cc#q/	.	(cc#q/	.
4D'\)	.	4d'\)	.	4dd'\)	.	4dd'\)	.
=23	=23	=23	=23	=23	=23	=23	=23
[2.DD/	.	2D/	.	2d/ 2an/	.	2d/	.
.	.	(c#q/	.	(cc#q/	.	(cc#q/	.
.	.	4d'\)	.	4dd'\)	.	4dd'\)	.
=24	=24	=24	=24	=24	=24	=24	=24
4DD/]	.	2D/	.	2d/	.	2d/	.
4r	.	.	.	.	.	.	.
.	.	.	.	.	.	(anq/	.
4r	.	4r	.	4r	pp	4b-'\)	.
=25	=25	=25	=25	=25	=25	=25	=25
[2.B-\	pp	2.fn\	.	[2.a-/	.	4dd'\	.
.	.	.	.	.	.	4ee-'\	.
.	.	.	.	.	.	4een'\	.
=26	=26	=26	=26	=26	=26	=26	=26
4B-\]	.	4d\	pp	4a-/]	pp	4ff\	.
4r	.	4r	.	4r	.	4r	.
.	.	.	.	.	.	(cc#q/	.
4r	.	4r	.	4r	.	4dd\)	.
=27	=27	=27	=27	=27	=27	=27	=27
[2.BB-/	.	[2.d\	.	(2a-/	.	4ff'\	.
.	.	.	.	.	.	4ff#'\	.
.	.	.	.	4g/)	.	4gg'\	.
=28	=28	=28	=28	=28	=28	=28	=28
4BB-/]	.	4d\]	.	4f/	.	4aa-'\	.
4r	.	4r	.	4r	.	4r	.
4r	.	4r	.	4r	.	4r	.
=29	=29	=29	=29	=29	=29	=29	=29
.	.	.	.	.	.	(aanq/	.
2.r	.	2.r	.	2.r	.	4bb-'\)	pp
.	.	.	.	.	.	4r	.
.	.	.	.	.	.	4r	.
=30	=30	=30	=30	=30	=30	=30	=30
2.r	.	4r	.	4r	.	4r	.
.	.	4r	.	4r	.	4r	.
.	.	(ddq/	.	(ddq/	.	(ddq/	.
.	.	4ee-'\)	f	4ee-'\)	f	4ee-'\)	f
=31	=31	=31	=31	=31	=31	=31	=31
(2.G\	.	(2.B-/	.	[2.e-/	.	(2.e-/	.
=32	=32	=32	=32	=32	=32	=32	=32
4A-\)	.	4c\)	.	4e-/]	.	4f/)	.
4r	.	4r	.	4r	.	4r	.
.	.	(ddq/	.	(ddq/	.	(ddq/	.
4r	.	4ee-'\)	.	4ee-'\)	.	4ee-'\)	.
=33	=33	=33	=33	=33	=33	=33	=33
(2.An\	.	(2.c\	.	[2.e-/	.	(2.f/	.
=34	=34	=34	=34	=34	=34	=34	=34
4B-\)	.	4B-/)	.	4e-/]	.	4g/)	.
4r	.	4r	.	4r	.	4r	.
.	.	(ddq/	.	(ddq/	.	(ddq/	.
4r	.	4ee-'\)	p	4ee-'\)	p	4ee-'\)	p
=35	=35	=35	=35	=35	=35	=35	=35
4E-'\	p	4e-'\	.	4e-'/	.	4e-'/	.
4D'\	.	4e-'\	.	4e-'/	.	4f'/	.
4D-'\	.	4e-'\	.	4e-'/	.	4g'/	.
=36	=36	=36	=36	=36	=36	=36	=36
4C'/	.	4e-'\	.	4e-'/	.	4a-'/	.
4BB-'/	.	4e-'\	.	4g'/	.	4b-'\	.
4AA-'/	.	4c'\	.	4a-'/	.	4cc'\	.
=37	=37	=37	=37	=37	=37	=37	=37
4BB-'/	.	4B-'\ 4f'\	f	4B-'/ 4a-'/	.	4b-'\	.
4B-'\	f	4B-'\ 4f'\	.	4B-'/ 4a-'/	.	4aa-'\	f
4B-'\	.	4B-'\ 4f'\	.	4B-'/ 4a-'/	.	4dd'\	.
=38	=38	=38	=38	=38	=38	=38	=38
2E-\	.	2G\ 2e-\	.	2B-\ 2g\	.	2ee-\	.
=39:|!	=39:|!	=39:|!	=39:|!	=39:|!	=39:|!	=39:|!	=39:|!
2E-\	.	2G/ 2e-/	.	2B-/ 2g/	.	2ee-\	.
4r	.	4r	.	4r	.	4r	.
=40!|:	=40!|:	=40!|:	=40!|:	=40!|:	=40!|:	=40!|:	=40!|:
[2.CC/ [2.GG/	pp	(4E-/	.	4g/	pp	4gg\	pp
.	.	4G/	.	(8g/L	.	(8gg\L	.
.	.	.	.	8f/	.	8ff\	.
.	.	4c/)	.	8e-/	.	8ee-\	.
.	.	.	.	8d/J)	.	8dd\J)	.
=41	=41	=41	=41	=41	=41	=41	=41
2.CC/_ 2.GG/_	.	(4E-/	.	(2c/	.	(2cc\	.
.	.	4G/	.	.	.	.	.
.	.	4c/)	.	4G/)	.	4g/)	.
=42	=42	=42	=42	=42	=42	=42	=42
2.CC/_ 2.GG/_	.	(4E-/	.	(8c/L	.	(8cc\L	.
.	.	.	.	8Bn/	.	8bn\	.
.	.	4G/	.	8c/	.	8cc\	.
.	.	.	.	8d/	.	8dd\	.
.	.	4c/)	.	8e-/	.	8ee-\	.
.	.	.	.	8f/J)	.	8ff\J)	.
=43	=43	=43	=43	=43	=43	=43	=43
2.CC/_ 2.GG/_	.	(4E-/	.	(8g/L	.	(8gg\L	.
.	.	.	.	8an/	.	8aan\	.
.	.	4G/	.	8bn/	.	8bbn\	.
.	.	.	.	8cc/J	.	8ccc\J	.
.	.	4Bn/)	.	4dd\)	.	4ddd\)	.
=44	=44	=44	=44	=44	=44	=44	=44
2.CC/_ 2.GG/_	.	(4E-/	.	4g/	.	4gg\	.
.	.	4G/	.	(8g/L	.	(8gg\L	.
.	.	.	.	8f/	.	8ff\	.
.	.	4c/)	.	8e-/	.	8ee-\	.
.	.	.	.	8d/J)	.	8dd\J)	.
=45	=45	=45	=45	=45	=45	=45	=45
2.CC/_ 2.GG/_	.	(4E-/	.	(2c/	.	(2cc\	.
.	.	4G/	.	.	.	.	.
.	.	4c/)	.	4G/)	.	4g/)	.
=46	=46	=46	=46	=46	=46	=46	=46
2.CC/_ 2.GG/_	.	(4E-/	.	(8A-/L	.	(8a-/L	.
.	.	.	.	8G/	.	8g/	.
.	.	4G/	.	8f/	.	8f/	.
.	.	.	.	8e-/	.	8e-/	.
.	.	4Bn/)	.	8d/	.	8d/	.
.	.	.	.	8e-/J)	.	8e-/J)	.
=47	=47	=47	=47	=47	=47	=47	=47
2CC/] 2GG/]	.	(4E-/	.	2c/	.	2c/	.
.	.	4G/	.	.	.	.	.
4r	.	4c/)	.	4r	.	4r	.
=48:|!|:	=48:|!|:	=48:|!|:	=48:|!|:	=48:|!|:	=48:|!|:	=48:|!|:	=48:|!|:
2.r	.	(2.B-/	.	(2.f/	.	4bb-\	.
.	.	.	.	.	.	(8bb-\L	.
.	.	.	.	.	.	8aa-\	.
.	.	.	.	.	.	8gg\	.
.	.	.	.	.	.	8ff\J)	.
=49	=49	=49	=49	=49	=49	=49	=49
2.r	.	4e-\)	.	4g/)	.	(4ee-\	.
.	.	4r	.	4r	.	4bb-\	.
.	.	4r	.	4r	.	4b-\)	.
=50	=50	=50	=50	=50	=50	=50	=50
2.r	.	(2.B-/	.	(2.f/	.	(4dd\	.
.	.	.	.	.	.	4ff\	pp
.	.	.	.	.	.	4b-\)	.
=51	=51	=51	=51	=51	=51	=51	=51
2.r	.	4G/)	.	4e-/)	.	(8ee-\L	.
.	.	.	.	.	.	8dd\)	.
.	.	4r	.	4r	.	8cc'\	.
.	.	.	.	.	.	8b-'\J	.
.	.	4r	.	4r	.	4b-\	.
=52	=52	=52	=52	=52	=52	=52	=52
2.r	.	(2.B-/	.	(2.f/	.	(8bb-\L	.
.	.	.	.	.	.	8ccc\	.
.	.	.	.	.	.	8bb-\	.
.	.	.	.	.	.	8aa-\	.
.	.	.	.	.	.	8gg\	.
.	.	.	.	.	.	8ff\J)	.
=53	=53	=53	=53	=53	=53	=53	=53
2.r	.	4e-\)	.	4g/)	.	(4ee-\	.
.	.	4r	.	4r	.	4gg\	.
.	.	4r	.	4r	.	4b-\)	.
=54	=54	=54	=54	=54	=54	=54	=54
2.r	.	(2.B-/	.	(2.f/	.	(4dd\	.
.	.	.	.	.	.	4ff\	.
.	.	.	.	.	.	4b-\)	.
=55	=55	=55	=55	=55	=55	=55	=55
2.r	.	4G/)	.	4e-/)	.	(8ee-\L	.
.	.	.	.	.	.	8dd\	.
.	.	4r	.	4r	.	8cc\	.
.	.	.	.	.	.	8dd\	.
.	.	4r	.	4r	.	8ee-\	.
.	.	.	.	.	.	8ff\J)	.
=56	=56	=56	=56	=56	=56	=56	=56
[2.CC/ [2.GG/	f	(4E-/	.	4g/	f	4gg\	f
.	.	4G/	.	(8g/L	.	(8gg\L	.
.	.	.	.	8f/	.	8ff\	.
.	.	4c/)	.	8e-/	.	8ee-\	.
.	.	.	.	8d/J)	.	8dd\J)	.
=57	=57	=57	=57	=57	=57	=57	=57
2.CC/_ 2.GG/_	.	(4E-/	.	(2c/	.	(2cc\	.
.	.	4G/	.	.	.	.	.
.	.	4c/)	.	4cc\)	.	4ccc\)	.
=58	=58	=58	=58	=58	=58	=58	=58
2.CC/_ 2.GG/_	.	(4E-/	.	(8a-/L	.	(8aa-\L	.
.	.	.	.	8g/	.	8gg\	.
.	.	4G/	.	8f/	.	8ff\	.
.	.	.	.	8e-/	.	8ee-\	.
.	.	4Bn/)	.	8d/	.	8dd\	.
.	.	.	.	8e-/J)	.	8ee-\J)	.
=59	=59	=59	=59	=59	=59	=59	=59
2CC/] 2GG/]	.	(4E-/	.	2c/	.	2cc\	.
.	.	4G/	.	.	.	.	.
4r	.	4c/)	.	4r	.	4r	.
=60:|!	=60:|!	=60:|!	=60:|!	=60:|!	=60:|!	=60:|!	=60:|!
2CC/ 2GG/	.	2c\	.	2c\	.	2cc\	.
=!|:	=!|:	=!|:	=!|:	=!|:	=!|:	=!|:	=!|:
.	.	(ddq/	.	(ddq/	.	(ddq/	.
4r	.	4ee-'\)	.	4ee-'\)	.	4ee-'\)	.
=61	=61	=61	=61	=61	=61	=61	=61
2.G\	.	[2.e-\	.	2.B-/	.	2.e-/	.
=62	=62	=62	=62	=62	=62	=62	=62
4A-\	.	4e-\]	.	4c/	.	4f/	.
4r	.	4r	.	4r	.	4r	.
.	.	(ddq/	.	(ddq/	.	(ddq/	.
4r	.	4ee-'\)	.	4ee-'\)	.	4ee-'\)	.
=63	=63	=63	=63	=63	=63	=63	=63
2.An\	.	2.c\	.	[2.e-/	.	2.f/	.
=64	=64	=64	=64	=64	=64	=64	=64
4B-\	.	4B-/	.	4e-/]	.	4g/	.
4r	.	4r	.	4r	.	4r	.
.	.	(ddq/	.	(ddq/	.	(ddq/	.
4r	.	4ee-'\)	.	4ee-'\)	.	4ee-'\)	.
=65	=65	=65	=65	=65	=65	=65	=65
4E-'\	.	4e-'\	.	4e-'/	.	4e-'/	.
4D'\	.	4e-'\	.	4e-'/	.	4f'/	.
4D-'\	.	4e-'\	.	4e-'/	.	4g'/	.
=66	=66	=66	=66	=66	=66	=66	=66
4C'/	.	4e-'\	.	4e-'/	.	4a-'/	.
4BB-'/	.	4e-'\	.	4g'/	.	4b-'\	.
4AA-'/	.	4e-'\	.	4a-'/	.	4cc'\	.
=67	=67	=67	=67	=67	=67	=67	=67
4BB-'/	.	4B-'\ 4f'\	.	4B-'/ 4a-'/	.	4b-'\	.
4B-'\	f	4B-'\ 4f'\	f	4B-'/ 4a-'/	f	4cc'\	f
4B-'\	.	4B-'\ 4f'\	.	4B-'/ 4a-'/	.	4dd'\	.
=68	=68	=68	=68	=68	=68	=68	=68
4E-\	.	4G/ 4e-/	.	4B-/ 4g/	.	4ee-\	.
4r	.	4r	.	4r	.	4r	.
=:|!|:	=:|!|:	=:|!|:	=:|!|:	=:|!|:	=:|!|:	=:|!|:	=:|!|:
.	.	(f#q/	.	(ff#q/	.	(ff#q/	.
4r	ff	4g'\)	ff	4gg'\)	ff	4gg'\)	ff
=69	=69	=69	=69	=69	=69	=69	=69
2.Bn\	.	([2.G\ 2.f\	.	[2.G/ [2.g/	.	2.g/	.
=70	=70	=70	=70	=70	=70	=70	=70
4c\	.	4G/]) 4e-/	.	4G/] 4g/]	.	4a-/	.
4r	.	4r	.	4r	.	4r	.
.	.	f#q/	.	ff#q/	.	ff#q/	.
4r	.	4g'\	.	4gg'\	.	4gg'\	.
=71	=71	=71	=71	=71	=71	=71	=71
(2.c\	.	[2.G/ 2.e-/	.	[2.G/ [2.g/	.	2.a-/	.
=72	=72	=72	=72	=72	=72	=72	=72
4d\)	.	4G\] 4f\	.	4G/] 4g/]	.	4bn\	.
4r	.	4r	.	4r	.	4r	.
.	.	(f#q/	.	(ff#q/	.	(ff#q/	.
4r	.	4g\)	.	4gg\)	.	4gg\)	.
=73	=73	=73	=73	=73	=73	=73	=73
2d^\	.	2G^\ 2f^\	.	2G^/ 2g^/	.	2bn^\	.
.	.	(f#q/	.	(ff#q/	.	(ff#q/	.
4r	.	4g\)	.	4gg\)	.	4gg\)	.
=74	=74	=74	=74	=74	=74	=74	=74
2e-^\	.	2Gn^\ 2fn^\	.	2G^/ 2g^/	.	2cc^\	.
.	.	(f#q/	.	(ff#q/	.	(ff#q/	.
4r	.	4g'\)	.	4gg'\)	.	4gg'\)	.
=75	=75	=75	=75	=75	=75	=75	=75
(2.E-\	.	(2.G/	.	(2.g/	.	(2.cc#\	.
=76	=76	=76	=76	=76	=76	=76	=76
4D\)	.	4An/)	.	4f#/)	.	4dd\)	.
4r	.	4r	.	4r	.	4r	.
.	.	(cc#q/	.	(cc#q/	.	(ccc#q/	.
4r	.	4dd'\)	.	4dd'\)	.	4ddd'\)	.
=77	=77	=77	=77	=77	=77	=77	=77
4D'\	.	8f#\	.	8d/ 8an/	.	2dd\	.
.	.	4f#\	.	4d/ 4a/	.	.	.
4F#'\	.	.	.	.	.	.	.
.	.	4f#\	.	4d/ 4a/	.	.	.
.	.	.	.	.	.	(ccc#q/	.
4An'\	.	.	.	.	.	4ddd'\)	.
.	.	(8f#\	.	([8d/ 8a/	.	.	.
=78	=78	=78	=78	=78	=78	=78	=78
4D'\	.	8g\)	.	8d/]) 8b-/	.	2dd\	.
.	.	4g\	.	4d/ 4b-/	.	.	.
4G'\	.	.	.	.	.	.	.
.	.	4g\	.	4d/ 4b-/	.	.	.
.	.	.	.	.	.	(ccc#q/	.
4B-'\	.	.	.	.	.	4ddd'\)	.
.	.	(8g\	.	([8d/ 8b-/	.	.	.
=79	=79	=79	=79	=79	=79	=79	=79
4D'\	.	8f#\)	.	8d/]) 8an/	.	2dd\	.
.	.	4f#\	.	4d/ 4a/	.	.	.
4F#'\	.	.	.	.	.	.	.
.	.	4f#\	.	4d/ 4a/	.	.	.
.	.	.	.	.	.	(ccc#q/	.
4An'\	.	.	.	.	.	4ddd'\)	.
.	.	(8f#\	.	([8d/ 8a/	.	.	.
=80	=80	=80	=80	=80	=80	=80	=80
4D'\	.	8g\)	.	8d/]) 8b-/	.	2dd\	.
.	.	4g\	.	4d/ 4b-/	.	.	.
4G'\	.	.	.	.	.	.	.
.	.	4g\	.	4d/ 4b-/	.	.	.
.	.	.	.	.	.	(ccc#q/	.
4B-'\	.	.	.	.	.	4ddd'\)	.
.	.	8g\	.	8d/ 8b-/	.	.	.
=81	=81	=81	=81	=81	=81	=81	=81
2D\	.	2f#\	.	2d/ 2an/	.	2dd\	.
.	.	.	.	(cc#q/	.	(ccc#q/	.
4r	.	4r	.	4dd\)	.	4ddd'\)	.
=82	=82	=82	=82	=82	=82	=82	=82
4r	.	4r	.	2d/ 2an/	.	2d/	.
4r	.	4r	.	.	.	.	.
(C#q/	.	(c#q/	.	(cc#q/	.	(cc#q/	.
4D'\)	.	4d'\)	.	4dd'\)	.	4dd'\)	.
=83	=83	=83	=83	=83	=83	=83	=83
[2.DD/	.	2D/	.	2d/ 2an/	.	2d/	.
.	.	(c#q/	.	(cc#q/	.	(cc#q/	.
.	.	4d'\)	.	4dd'\)	.	4dd'\)	.
=84	=84	=84	=84	=84	=84	=84	=84
4DD/]	.	2D/	.	2d/	.	2d/	.
4r	.	.	.	.	.	.	.
.	.	.	.	.	.	(anq/	.
4r	.	4r	.	4r	pp	4b-'\)	.
=85	=85	=85	=85	=85	=85	=85	=85
[2.B-\	pp	2.fn\	pp	[2.a-/	pp	4dd'\	.
.	.	.	.	.	.	4ee-'\	.
.	.	.	.	.	.	4een'\	.
=86	=86	=86	=86	=86	=86	=86	=86
4B-\]	.	4d\	.	4a-/]	.	4ff'\	.
4r	.	4r	.	4r	.	4r	.
.	.	.	.	.	.	(cc#q/	.
4r	.	4r	.	4r	.	4dd\)	.
=87	=87	=87	=87	=87	=87	=87	=87
[2.BB-/	.	[2.d\	.	(2a-/	.	4ff'\	.
.	.	.	.	.	.	4ff#'\	.
.	.	.	.	4g/)	.	4gg'\	.
=88	=88	=88	=88	=88	=88	=88	=88
4BB-/]	.	4d\]	.	4f/	.	4aa-'\	.
4r	.	4r	.	4r	.	4r	.
4r	.	4r	.	4r	.	4r	.
=89	=89	=89	=89	=89	=89	=89	=89
.	.	.	.	.	.	(aanq/	.
2.r	.	2.r	.	2.r	.	4bb-'\)	pp
.	.	.	.	.	.	4r	.
.	.	.	.	.	.	4r	.
=90	=90	=90	=90	=90	=90	=90	=90
2.r	.	4r	.	4r	.	4r	.
.	.	4r	.	4r	.	4r	.
.	.	(ddq/	.	(ddq/	.	(ddq/	.
.	.	4ee-'\)	.	4ee-'\)	f	4ee-'\)	f
=91	=91	=91	=91	=91	=91	=91	=91
(2.G\	f	(2.B-/	f	[2.e-/	.	(2.e-/	.
=92	=92	=92	=92	=92	=92	=92	=92
4A-\)	.	4c\)	.	4e-/]	.	4f/)	.
4r	.	4r	.	4r	.	4r	.
.	.	(ddq/	.	(ddq/	.	(ddq/	.
4r	.	4ee-'\)	.	4ee-'\)	.	4ee-'\)	.
=93	=93	=93	=93	=93	=93	=93	=93
(2.An\	.	(2.c\	.	[2.e-/	.	(2.f/	.
=94	=94	=94	=94	=94	=94	=94	=94
4B-\)	.	4B-/)	.	4e-/]	.	4g/)	.
4r	.	4r	.	4r	.	4r	.
.	.	(ddq/	.	(ddq/	.	(ddq/	.
4r	.	4ee-'\)	p	4ee-'\)	p	4ee-'\)	p
=95	=95	=95	=95	=95	=95	=95	=95
4E-'\	p	4e-'\	.	4e-'/	.	4e-'/	.
4D'\	.	4e-'\	.	4e-'/	.	4f'/	.
4D-'\	.	4e-'\	.	4e-'/	.	4g'/	.
=96	=96	=96	=96	=96	=96	=96	=96
4C'/	.	4e-'\	.	4e-'/	.	4a-'/	.
4BB-'/	.	4e-'\	.	4g'/	.	4b-'\	.
4AA-'/	.	4c'\	.	4a-'/	.	4cc'\	.
=97	=97	=97	=97	=97	=97	=97	=97
4BB-'/	f	4B-'\ 4f'\	f	4B-'/ 4a-'/	f	4b-'\	.
4B-'\	f	4B-'\ 4f'\	.	4B-'/ 4a-'/	.	4aa-'\	.
4B-'\	.	4B-'\ 4f'\	.	4B-'/ 4a-'/	.	4dd'\	.
=98	=98	=98	=98	=98	=98	=98	=98
2E-\	.	2G\ 2e-\	.	2B-\ 2g\	.	2ee-\	.
=99:|!	=99:|!	=99:|!	=99:|!	=99:|!	=99:|!	=99:|!	=99:|!
2E-\	.	2G/ 2e-/	.	2B-/ 2g/	.	2ee-\	.
4r	.	4r	.	4r	.	4r	.
=	=	=	=	=	=	=	=
*-	*-	*-	*-	*-	*-	*-	*-
!!!ENC: Craig Stuart Sapp
!!!END: 2004/09/07/
!!!RWG: repeat markers for thru command not yet encoded
